src/assets/icons/svg/calendar.svg

<svg width="20" height="20" viewBox="0 0 20 20" fill="none" xmlns="http://www.w3.org/2000/svg">
<path d="M19.2188 13.75C19.6502 13.75 20 13.4002 20 12.9688V4.6875C20 2.96438 18.5981 1.5625 16.875 1.5625H15.8594V0.78125C15.8594 0.349766 15.5096 0 15.0781 0C14.6466 0 14.2969 0.349766 14.2969 0.78125V1.5625H10.7422V0.78125C10.7422 0.349766 10.3924 0 9.96094 0C9.52945 0 9.17969 0.349766 9.17969 0.78125V1.5625H5.66406V0.78125C5.66406 0.349766 5.3143 0 4.88281 0C4.45133 0 4.10156 0.349766 4.10156 0.78125V1.5625H3.125C1.40188 1.5625 0 2.96438 0 4.6875V16.875C0 18.5981 1.40188 20 3.125 20H16.875C18.5981 20 20 18.5981 20 16.875C20 16.4435 19.6502 16.0938 19.2188 16.0938C18.7873 16.0938 18.4375 16.4435 18.4375 16.875C18.4375 17.7366 17.7366 18.4375 16.875 18.4375H13.9062V13.75H19.2188ZM18.4375 12.1875H13.9062V7.5H18.4375V12.1875ZM6.09375 18.4375H3.125C2.26344 18.4375 1.5625 17.7366 1.5625 16.875V13.75H6.09375V18.4375ZM6.09375 12.1875H1.5625V7.5H6.09375V12.1875ZM12.3438 18.4375H7.65625V13.75H12.3438V18.4375ZM12.3438 12.1875H7.65625V7.5H12.3438V12.1875ZM1.5625 5.9375V4.6875C1.5625 3.82594 2.26344 3.125 3.125 3.125H4.10156V3.90625C4.10156 4.33773 4.45133 4.6875 4.88281 4.6875C5.3143 4.6875 5.66406 4.33773 5.66406 3.90625V3.125H9.17969V3.90625C9.17969 4.33773 9.52945 4.6875 9.96094 4.6875C10.3924 4.6875 10.7422 4.33773 10.7422 3.90625V3.125H14.2969V3.90625C14.2969 4.33773 14.6466 4.6875 15.0781 4.6875C15.5096 4.6875 15.8594 4.33773 15.8594 3.90625V3.125H16.875C17.7366 3.125 18.4375 3.82594 18.4375 4.6875V5.9375H1.5625Z" fill="black"/>
</svg>

<?xml version="1.0" encoding="iso-8859-1"?>
<!-- Generator: Adobe Illustrator 23.1.0, SVG Export Plug-In . SVG Version: 6.00 Build 0)  -->
<svg version="1.1" id="&#x421;&#x43B;&#x43E;&#x439;_1"
	 xmlns="http://www.w3.org/2000/svg" xmlns:xlink="http://www.w3.org/1999/xlink" x="0px" y="0px" viewBox="0 0 20 20"
	 style="enable-background:new 0 0 20 20;" xml:space="preserve">
<path d="M19.219,13.75C19.65,13.75,20,13.4,20,12.969V4.688c0-1.723-1.402-3.125-3.125-3.125h-1.016V0.781
	C15.859,0.35,15.51,0,15.078,0c-0.432,0-0.781,0.35-0.781,0.781v0.781h-3.555V0.781C10.742,0.35,10.392,0,9.961,0
	C9.529,0,9.18,0.35,9.18,0.781v0.781H5.664V0.781C5.664,0.35,5.314,0,4.883,0C4.451,0,4.102,0.35,4.102,0.781v0.781H3.125
	C1.402,1.563,0,2.964,0,4.688v12.188C0,18.598,1.402,20,3.125,20h13.75C18.598,20,20,18.598,20,16.875
	c0-0.431-0.35-0.781-0.781-0.781c-0.431,0-0.781,0.35-0.781,0.781c0,0.862-0.701,1.563-1.563,1.563h-2.969V13.75H19.219z
	 M18.438,12.188h-4.531V7.5h4.531V12.188z M6.094,18.438H3.125c-0.862,0-1.563-0.701-1.563-1.563V13.75h4.531V18.438z M6.094,12.188
	H1.563V7.5h4.531V12.188z M12.344,18.438H7.656V13.75h4.688V18.438z M12.344,12.188H7.656V7.5h4.688V12.188z M1.563,5.938v-1.25
	c0-0.862,0.701-1.563,1.563-1.563h0.977v0.781c0,0.431,0.35,0.781,0.781,0.781c0.431,0,0.781-0.35,0.781-0.781V3.125H9.18v0.781
	c0,0.431,0.35,0.781,0.781,0.781c0.431,0,0.781-0.35,0.781-0.781V3.125h3.555v0.781c0,0.431,0.35,0.781,0.781,0.781
	c0.431,0,0.781-0.35,0.781-0.781V3.125h1.016c0.862,0,1.563,0.701,1.563,1.563v1.25H1.563z"/>
</svg>
